!!!!SEGMENT: pl-kk--kk-i-290--002_anonim--stabat-mater.krn
!!!cenid: 17xx:2041
!!!COM: Anonim
!!!COM-rismID: pe30004985
!!!CDT:
!!!CNT:
!!!OTL: Stabat Mater
!!!PDT:
!!!AGN: Sacred
!!!SMS-siglum: PL-Kk
!!!SMS-shelfmark: Kk.I.290
!!!SMS-shelfwork: 002 W
!!!SMS-variant:
!!!SMS-altvar:
!!!NIFC-rismSourceID: 1001144588
!!!NIFC-rismChildID: 1001144592
!!!NIFC-islandoraID: pl-kk:5044
!!!URL-pdf-islandora: https://repozytorium.nifc.pl/islandora/object/pl-kk%3A5044/datastream/PDF/view
!!!URL-scan: https://polish.musicsources.pl/pl/lokalizacje/galeria/rekopisy/5908 @EN{Scan on Polish Music Sources Website} @PL{Skany w portalu Dziedzictwo Muzyki Polskiej w otwartym dostępie}
!!!ONB-nifc: UWAGA: utwory w zbiorze: 1. Stabat Mater (skan 0001), 2. Stabat Mater (skan 0002)
!!!AIN: 1 bass
!!!key:
**kern	**text	**text
*Ibass	*	*
*I"Basso	*	*
*clefF4	*	*
*k[b-]	*	*
*d:	*	*
*M4/4	*	*
*met(c)	*	*
=1	=1	=1
4G\	Sta-	O
4G\	-bat	quam
4B-\	ma-	tris-
4B-\	-ter	-tis
=2	=2	=2
4F\	do-	et
4F\	-lo-	af-
4G\	-ro-	-fli-
4C#X/	.	.
=3	=3	=3
!LO:TX:t=P:global:problem=oddech jako rozdzielacz słów, przeważnie na wysokości dźwięku poprzedzającego	!	!
2D,/	-sa,	-cta
4A\	jux-	fu-
(8A\L	-ta	-it
8G\J)	.	.
=4	=4	=4
(8F\L	Cru-	il-
8E\J)	.	.
4D,/	-cem	-la
4AA/	la-	be-
4D/	-chry-	-ne-
=5	=5	=5
4A\	-mo-	-di-
4AA/	.	.
2D/	-sa	-cta
!!LO:LB:g=original
=6	=6	=6
4BB-/	dum	Ma-
4BB-/	pen-	-ter
4F\	-de-	U-
4F\	-bat	-ni-
=7	=7	=7
*	*ij	*
4G\	dum	-ge-
4C/	pen-	.
4D/	-de-	.
4GG/	-bat	.
*	*Xij	*
=8	=8	=8
8D/	Fi-	.
8D/	-li-	-ni-
4D,/	-us	-ti,
4.G\	dum	Ma-
8G\	pen-	-ter
=9	=9	=9
4Fn\	-de-	u-
4D,\	-bat	-ni-
(4E-X\	Fi-	-ge-
4F\)	.	.
=10	=10	=10
4G\	.	.
4E-X\	-li-	-(ni-
4D/	-us	-ti)
4r	.	.
!!LO:LB:g=original
=11	=11	=11
1r	.	.
=12	=12	=12
1r	.	.
=13	=13	=13
2r	.	.
4BB-/	dum	Ma-
4BB-/	pen-	-ter
=14	=14	=14
4F\	-de-	u-
4F\	-bat	-ni-
4G\	Fi-	-ge-
4C/	.	.
=15	=15	=15
4.D/	.	.
8D/	-li-	-ni-
2GG/	-us	-ti.
=16||	=16||	=16||
4G\	Cu-	Qua
4G\	-jus	mae-
4B-\	a-	-re-
4B-\	-ni-	-bat
=17	=17	=17
4F\	-mam	et
4F\	ge-	do-
4G\	-men-	-le-
4C#X/	.	.
=18	=18	=18
2D,/	-tem	-bat
!!LO:LB:g=original
4A\	Con-	pi-
8A\L	-tris-	-a
8G\J	.	.
=19	=19	=19
4F/	-ta-	ma-
4D,/	-tam	-ter
4AA/	et	cum
4D/	do-	vi-
=20	=20	=20
4A\	-len-	-de-
4AA/	.	.
2D/	-tem	-bat
=21	=21	=21
4BB-/	per-	na-
4BB-/	-tran-	-ti
4F\	-ſi-	poe-
4F\	-vit	-nas
=22	=22	=22
4G\	gla-	in-
4C/	.	.
4.D/	.	.
8D/	-di-	-cly-
=23	=23	=23
4GG/	-us	-ti,
4r	.	.
2r	.	.
=24	=24	=24
2r	.	.
4G\	per-	nati
4E-X\	-tran-	poenas
!!LO:LB:g=original
=25	=25	=25
4D/	-si-	na-
4BB-,/	-vit!	-ti
4AA/	gla-	poe-
4D/	.	-na
=26	=26	=26
4GG/	.	in-
4C/	.	.
4D/	.	.
4GG/	.	.
=27	=27	=27
4.D/	-di-	-cly-
8D/	-us.	-ti.
2GG/	.	.
!!LO:LB:g=original
=28||	=28||	=28||
*M3/2	*	*
*k[b-]	*	*
1F\	E-	San-
2C/	-ja	-cta
=29	=29	=29
1F\	ma-	Ma-
*2\right	*	*
2F\	-ter	-ter
=30	=30	=30
1D\	Fons	is-
2E\	a-	-tud
=31	=31	=31
1.F\	-mo-	a-
=32	=32	=32
1.F\	-ris!	-gas!
=33	=33	=33
1F\	me	Cru-
2FF/	ſen-	-ci-
=34	=34	=34
1GG/	-ti-	-fi-
2GG/	-re	-xi
=35	=35	=35
1AA/	vim	fi-
2BB-/	do-	-ge
=36	=36	=36
1.C/	-lo-	pla-
=37	=37	=37
1.C/,	-ris	-gas
=38	=38	=38
1F\	fac	Cor-
2E\	ut	-di
=39	=39	=39
1F\	Te-	me-
2BB-/	-cum	-o
!!LO:LB:g=original
=40	=40	=40
1C/	lu-	va-
2C/	-ge-	-li-
=41	=41	=41
1.F\	-am	-de
=42||	=42||	=42||
1D\	Fac	Tu-
2C/	ut	-i
=43	=43	=43
2.F\	ar-	na-
4E\	-de-	-ti
2D\	-at	vul-
=44	=44	=44
2C/	cor	-ne-
1BB-/	me-	-ra-
=45	=45	=45
1.AA/,	-um!	-ti,
=46	=46	=46
2r	.	.
2A\	in	tam
2G\	am-	di-
=47	=47	=47
1Fn\	-an-	-gna-
2E\	-do	-ti
=48	=48	=48
1D\	(Chris)-	pro
2D\	-tum	me
=49	=49	=49
[<1.E\	D-	pa-
=50	=50	=50
1.E\]	-E-	.
!LO:TX:a:t=P:problem=custos AA	!	!
!!LO:LB:g=original
=51	=51	=51
1AA/,	-um	-ti,
2F\	ut	poe-
=52	=52	=52
2E\	Ti-	-nas
2C/	-bi	me-
2E\	com-	-cum
=53	=53	=53
(2.F\	-pla-	me-
4G\	.	.
4A\	.	.
4B-\)	.	.
=54	=54	=54
2c\	.	.
1C/	.	-cum
=55	=55	=55
2.D\	.	me-
4E\	.	.
4F\	.	.
4G\	.	.
=56	=56	=56
1A\	.	.
[<2G\	.	-cum
=57	=57	=57
2G\]	.	.
2A\	-ce-	di-
2AA/	-am	-vi-
=58	=58	=58
0D\	.	-de
=:|!	=:|!	=:|!
*-	*-	*-
!!!RDF**kern: > = above
!!!RDF**kern: < = below
!!!EED: Leszek Kubiak
!!!EEV: 2021-03-03
!!!ENC: Tomasz Grochalski
!!!END: 2021-02-15
!!!YEC: Copyright 2022 Narodowy Instytut Fryderyka Chopina (https://polishscores.org)
!!!YEM: License CC-BY-4.0 (https://creativecommons.org/licenses/by/4.0)
